remix/Editor/delete-column.svg

<svg viewBox="0 0 24 24" fill="currentColor" xmlns="http://www.w3.org/2000/svg"><path d="M12 3C12.5523 3 13 3.44772 13 4L12.9998 11.9998C13.8355 11.372 14.8743 11 16 11C18.7614 11 21 13.2386 21 16C21 18.7614 18.7614 21 16 21C14.9681 21 14.0092 20.6874 13.2129 20.1518L13 20C13 20.5523 12.5523 21 12 21H6C5.44772 21 5 20.5523 5 20V4C5 3.44772 5.44772 3 6 3H12ZM11 5H7V19H11V5ZM19 15H13V17H19V15Z"/></svg>

<svg viewBox="0 0 24 24" xmlns="http://www.w3.org/2000/svg"><path fill="none" d="M0 0h24v24H0Z"/><path d="M12 3c.55 0 1 .44 1 1v8c.83-.63 1.87-1 3-1 2.76 0 5 2.23 5 5 0 2.76-2.24 5-5 5 -1.032 0-1.99-.32-2.79-.85l-.22-.16c0 .55-.45 1-1 1h-6c-.56 0-1-.45-1-1v-16c0-.552.44-1 1-1h6Zm-1 2H7v14h4V5Zm8 10h-6v2h6v-2Z"/></svg>
